X: 290
T:Virgo salutiferi / Ave Maria / Tu potis es / Nunc celi regina
N: Derived from Jos2513-Virgo_salutiferi__Ave_Maria.krn
C: Josquin des Prez
%%abc-version 2.0
%%abcx-abcm2ps-target-version 5.9.1 (29 Sep 2008)
%%abc-creator hum2abc beta
%%abcx-conversion-date 2019/02/12 16:15:53
%%abc-edited-by Jesse Rodin
%%abc-edited-by Jesse Rodin; Victoria Chang 2011/05/16; Jesse Rodon 2013/02/15 (lyrics)
%%abcx-initial-encoding-date 2011/05/16/
%%humdrum-veritas 946642660
%%humdrum-veritas-data 2116956901
%%linebreak <none>
%%barnumbers 0
L: 1/4
M: 2/1
Q: 1/2=120
V: 1 clef=treble
V: 2 clef=treble-8
V: 3 clef=treble-8
V: 4 clef=treble-8
V: 5 clef=bass
K: F
[V:1] z8 | 
[V:2] z8 | 
[V:3] z8 | 
[V:4] G8 | 
[V:5] z8 | 
[V:1] z8 | 
[V:2] G8 | 
[V:3] z8 | 
[V:4] G3ABcB2- | 
[V:5] z8 | 
[V:1] z8 | 
[V:2] G3ABcB2- | 
[V:3] z8 | 
[V:4] B2AGd4 | 
[V:5] G,,8 | 
[V:1] z8 | 
[V:2] B2AGd4 | 
[V:3] z8 | 
[V:4] z4D4- | 
[V:5] G,,3A,,B,,C,B,,2- | 
[V:1] z8 | 
[V:2] z8 | 
[V:3] z8 | 
[V:4] D4D3E | 
[V:5] B,,2A,,G,,D,4 | 
[V:1] z8 | 
[V:2] D8 | 
[V:3] z8 | 
[V:4] FGF4ED | 
[V:5] z8 | 
[V:1] z8 | 
[V:2] D3EFGF2- | 
[V:3] z8 | 
[V:4] A8 | 
[V:5] D,8 | 
[V:1] z8 | 
[V:2] F2EDA4 | 
[V:3] z8 | 
[V:4] z8 | 
[V:5] D,3E,F,G,F,2- | 
[V:1] z8 | 
[V:2] z4D4- | 
[V:3] z8 | 
[V:4] A8 | 
[V:5] F,2E,D,A,4 | 
[V:1] z8 | 
[V:2] D4D4 | 
[V:3] z8 | 
[V:4] A4B4 | 
[V:5] z8 | 
[V:1] z8 | 
[V:2] E4F4 | 
[V:3] z8 | 
[V:4] c4d4- | 
[V:5] z8 | 
[V:1] z8 | 
[V:2] G6G2 | 
[V:3] z8 | 
[V:4] d2d2d4- | 
[V:5] G,,8 | 
[V:1] z8 | 
[V:2] G4E2F2- | 
[V:3] z8 | 
[V:4] d2cBc4 | 
[V:5] G,,4A,,4 | 
[V:1] z8 | 
[V:2] F2G3FED | 
[V:3] z8 | 
[V:4] d4G4 | 
[V:5] B,,4C,4- | 
[V:1] z8 | 
[V:2] E4z4 | 
[V:3] z8 | 
[V:4] c6A2 | 
[V:5] C,2C,2C,4 | 
[V:1] z8 | 
[V:2] c6B2 | 
[V:3] z8 | 
[V:4] A8 | 
[V:5] z4F,4- | 
[V:1] z8 | 
[V:2] A2G2F4 | 
[V:3] z8 | 
[V:4] f6e2 | 
[V:5] F,2E,2D,2C,2 | 
[V:1] z8 | 
[V:2] B4G4 | 
[V:3] z8 | 
[V:4] d2c2B4 | 
[V:5] B,,4_E,4 | 
[V:1] z8 | 
[V:2] A4A2F2- | 
[V:3] z8 | 
[V:4] c4A4 | 
[V:5] C,4D,4 | 
[V:1] z8 | 
[V:2] F2EDD4 | 
[V:3] z8 | 
[V:4] d4d2B2- | 
[V:5] D,2B,,4A,,G,, | 
[V:1] z8 | 
[V:2] z4B4- | 
[V:3] z8 | 
[V:4] B2AGG4 | 
[V:5] G,,4z4 | 
[V:1] z8 | 
[V:2] B2B2B2G2 | 
[V:3] z8 | 
[V:4] z4d4- | 
[V:5] G,6G,2 | 
[V:1] z8 | 
[V:2] B4A3F | 
[V:3] z8 | 
[V:4] d2d2d2A2 | 
[V:5] G,2D,2F,4- | 
[V:1] z8 | 
[V:2] A2G4FE | 
[V:3] z8 | 
[V:4] c6B2- | 
[V:5] F,2_E,4D,C, | 
[V:1] z8 | 
[V:2] D2f3edc | 
[V:3] z8 | 
[V:4] B2AGF4 | 
[V:5] B,,8 | 
[V:1] z8 | 
[V:2] d4z2d2- | 
[V:3] z8 | 
[V:4] f8 | 
[V:5] z4B,4- | 
[V:1] z8 | 
[V:2] dcdef2g2- | 
[V:3] z8 | 
[V:4] f4d4 | 
[V:5] B,4B,4 | 
[V:1] z8 | 
[V:2] gfedc4 | 
[V:3] z8 | 
[V:4] e6e2 | 
[V:5] G,4A,4- | 
[V:1] z8 | 
[V:2] z4z2c2 | 
[V:3] z8 | 
[V:4] c3AA4 | 
[V:5] A,2A,2F,3D, | 
[V:1] z8 | 
[V:2] d2f3edc | 
[V:3] z8 | 
[V:4] z4d4- | 
[V:5] D,4z4 | 
[V:1] z8 | 
[V:2] BAB3ABc | 
[V:3] z8 | 
[V:4] d4d4 | 
[V:5] G,8 | 
[V:1] z8 | 
[V:2] d2e3dcB | 
[V:3] z8 | 
[V:4] B4c4- | 
[V:5] G,4E,4 | 
[V:1] z8 | 
[V:2] A4z4 | 
[V:3] z8 | 
[V:4] c2c2A3F | 
[V:5] F,6F,2 | 
[V:1] z8 | 
[V:2] z2A2B2d2- | 
[V:3] z8 | 
[V:4] F4z4 | 
[V:5] D,3B,,B,,4 | 
[V:1] z8 | 
[V:2] dcBAGFG2- | 
[V:3] z8 | 
[V:4] B8 | 
[V:5] z4_E,4- | 
[V:1] z8 | 
[V:2] GFGAB2c2- | 
[V:3] z8 | 
[V:4] B4G4 | 
[V:5] E,4_E,4 | 
[V:1] z8 | 
[V:2] cBAGF4 | 
[V:3] z8 | 
[V:4] A6A2 | 
[V:5] C,4D,4- | 
[V:1] z8 | 
[V:2] z4z2F2 | 
[V:3] z8 | 
[V:4] F3DD2d2- | 
[V:5] D,2D,2B,,3G,, | 
[V:1] z8 | 
[V:2] G2F2G2F2- | 
[V:3] z8 | 
[V:4] d2d2c2B2- | 
[V:5] G,,2D,2_E,2D,2- | 
[V:1] z8 | 
[V:2] F2EDC4 | 
[V:3] z8 | 
[V:4] B2AG^FGA^F | 
[V:5] D,2C,B,,A,,4 | 
[V:1] z8 | 
[V:2] D4G4- | 
[V:3] B8- | 
[V:4] G4z2d2- | 
[V:5] G,,8 | 
[V:1] z8 | 
[V:2] G2F2G2B2 | 
[V:3] B8 | 
[V:4] def2B2f2- | 
[V:5] z2D,2_E,2D,2- | 
[V:1] z8 | 
[V:2] A4z2A2 | 
[V:3] F8 | 
[V:4] f2edc4 | 
[V:5] D,2C,B,,A,,4 | 
[V:1] B8- | 
[V:2] B3cd2G2 | 
[V:3] G8 | 
[V:4] B8 | 
[V:5] G,,2G,3A,B,2- | 
[V:1] B8 | 
[V:2] B4G2B2- | 
[V:3] G8 | 
[V:4] z2B4G2 | 
[V:5] B,A,G,F,_E,4 | 
[V:1] F8 | 
[V:2] B2AGF4 | 
[V:3] d8 | 
[V:4] B4A4 | 
[V:5] D,8 | 
[V:1] G8 | 
[V:2] _E6DC | 
[V:3] _e8- | 
[V:4] c6B2 | 
[V:5] C,8- | 
[V:1] G8 | 
[V:2] _E3FG3A | 
[V:3] e8 | 
[V:4] G4_E2G2- | 
[V:5] C,8 | 
[V:1] d8 | 
[V:2] B3AF2G2- | 
[V:3] d8 | 
[V:4] G2F_ED4 | 
[V:5] B,,8 | 
[V:1] _e8- | 
[V:2] G2C2_E3F | 
[V:3] z8 | 
[V:4] CD_EFG2c2- | 
[V:5] C,8- | 
[V:1] e8 | 
[V:2] G4_E4 | 
[V:3] z8 | 
[V:4] cBB4A2 | 
[V:5] C,8 | 
[V:1] d8 | 
[V:2] z4F4- | 
[V:3] z8 | 
[V:4] B8- | 
[V:5] B,,6C,2 | 
[V:1] z8 | 
[V:2] F4G4 | 
[V:3] z8 | 
[V:4] B8 | 
[V:5] D,4_E,3D, | 
[V:1] z8 | 
[V:2] F4G4- | 
[V:3] z8 | 
[V:4] z4B4- | 
[V:5] B,,4z2B,2- | 
[V:1] z8 | 
[V:2] G4F4 | 
[V:3] z8 | 
[V:4] B4c4 | 
[V:5] B,2A,G,A,4 | 
[V:1] z8 | 
[V:2] z2B4AG | 
[V:3] z8 | 
[V:4] B4c4- | 
[V:5] z4F,4- | 
[V:1] z8 | 
[V:2] A4z4 | 
[V:3] z8 | 
[V:4] c4B4 | 
[V:5] F,4G,4 | 
[V:1] z8 | 
[V:2] z2f4ed | 
[V:3] z8 | 
[V:4] z8 | 
[V:5] F,4G,4- | 
[V:1] z8 | 
[V:2] efB4AG | 
[V:3] z8 | 
[V:4] B4c4- | 
[V:5] G,4F,4 | 
[V:1] z8 | 
[V:2] A4z2B2- | 
[V:3] z8 | 
[V:4] c4B4 | 
[V:5] z2F,2G,4- | 
[V:1] z8 | 
[V:2] B2AGABcA | 
[V:3] z8 | 
[V:4] z2B2f4- | 
[V:5] G,4F,4 | 
[V:1] z8 | 
[V:2] B4A4- | 
[V:3] d8 | 
[V:4] f2f2f4 | 
[V:5] B,,4F,4- | 
[V:1] z8 | 
[V:2] A2G2F4- | 
[V:3] c4B4 | 
[V:4] z4z2B2- | 
[V:5] F,2E,2D,4 | 
[V:1] z8 | 
[V:2] F2EDE4 | 
[V:3] c8 | 
[V:4] B2AGABcA | 
[V:5] C,3B,,C,4 | 
[V:1] d8 | 
[V:2] F6D2 | 
[V:3] d8 | 
[V:4] B2F2f4- | 
[V:5] B,,8 | 
[V:1] c4B4 | 
[V:2] A4B4 | 
[V:3] z8 | 
[V:4] f2e2d4 | 
[V:5] z6B,2- | 
[V:1] c8 | 
[V:2] F8 | 
[V:3] z8 | 
[V:4] c3Bc4 | 
[V:5] B,2A,G,A,B,CA, | 
[V:1] d8 | 
[V:2] z4B4 | 
[V:3] z8 | 
[V:4] Bcdef2g2- | 
[V:5] B,8 | 
[V:1] z8 | 
[V:2] B4B4 | 
[V:3] z8 | 
[V:4] g2fed4 | 
[V:5] z4z2B,2- | 
[V:1] z8 | 
[V:2] c6Bc | 
[V:3] z8 | 
[V:4] z8 | 
[V:5] B,2A,G,A,B,CA, | 
[V:1] z8 | 
[V:2] d2Bcdef2 | 
[V:3] z8 | 
[V:4] Bcdef2B2 | 
[V:5] B,4B,,4 | 
[V:1] z8 | 
[V:2] Bcdef2g2- | 
[V:3] z8 | 
[V:4] f3edcB2- | 
[V:5] B,,4B,,4 | 
[V:1] z8 | 
[V:2] gff4e2 | 
[V:3] z8 | 
[V:4] BAGFG4 | 
[V:5] C,6B,,C, | 
[V:1] z8 | 
[V:2] f4z4 | 
[V:3] z8 | 
[V:4] F4z4 | 
[V:5] D,8 | 
[V:1] z8 | 
[V:2] F6F2 | 
[V:3] z8 | 
[V:4] D6D2 | 
[V:5] z4B,,4- | 
[V:1] z8 | 
[V:2] G4A4 | 
[V:3] z8 | 
[V:4] D4E4 | 
[V:5] B,,2B,,2C,4 | 
[V:1] z8 | 
[V:2] B3AG2F2 | 
[V:3] z8 | 
[V:4] F3ED2C2 | 
[V:5] D,3C,B,,2A,,2 | 
[V:1] z8 | 
[V:2] G4D4 | 
[V:3] d8 | 
[V:4] D2B4AG | 
[V:5] G,,4F,4- | 
[V:1] z8 | 
[V:2] z8 | 
[V:3] c4B4 | 
[V:4] A4z4 | 
[V:5] F,2F,2G,4 | 
[V:1] z8 | 
[V:2] z8 | 
[V:3] c8 | 
[V:4] z2A4G2 | 
[V:5] A,3G,F,2E,2 | 
[V:1] d8 | 
[V:2] z4f4- | 
[V:3] d8 | 
[V:4] B4A4 | 
[V:5] D,8 | 
[V:1] c4B4 | 
[V:2] f2f2g4 | 
[V:3] z8 | 
[V:4] z8 | 
[V:5] z8 | 
[V:1] c8 | 
[V:2] a3gf2e2 | 
[V:3] z8 | 
[V:4] z4A4 | 
[V:5] z8 | 
[V:1] d8 | 
[V:2] d8 | 
[V:3] z8 | 
[V:4] F4G4 | 
[V:5] D,4B,,4 | 
[V:1] z8 | 
[V:2] z8 | 
[V:3] z8 | 
[V:4] A4F4- | 
[V:5] C,4D,4 | 
[V:1] z8 | 
[V:2] z8 | 
[V:3] z8 | 
[V:4] F2D2D4 | 
[V:5] B,,6G,,2 | 
[V:1] z8 | 
[V:2] z8 | 
[V:3] z8 | 
[V:4] z4D4 | 
[V:5] G,,4z4 | 
[V:1] z8 | 
[V:2] z8 | 
[V:3] z8 | 
[V:4] G8 | 
[V:5] G,,4C,4- | 
[V:1] z8 | 
[V:2] z8 | 
[V:3] z8 | 
[V:4] G4c4- | 
[V:5] C,4C,4 | 
[V:1] z8 | 
[V:2] z8 | 
[V:3] z8 | 
[V:4] c2c2c3B | 
[V:5] F,6F,2 | 
[V:1] z8 | 
[V:2] z8 | 
[V:3] z8 | 
[V:4] c2d3cBA | 
[V:5] F,3E,F,2G,2- | 
[V:1] z8 | 
[V:2] z8 | 
[V:3] d8 | 
[V:4] B2A2B2A2- | 
[V:5] G,F,D,3E,F,2- | 
[V:1] z8 | 
[V:2] z4d4 | 
[V:3] c4B4 | 
[V:4] AGG4F2 | 
[V:5] F,E,D,C,D,4 | 
[V:1] z8 | 
[V:2] e2c2e3f | 
[V:3] c8 | 
[V:4] G4z2c2 | 
[V:5] C,8 | 
[V:1] d8 | 
[V:2] g3fdcde | 
[V:3] G8 | 
[V:4] B2G2B3A | 
[V:5] z8 | 
[V:1] c4B4 | 
[V:2] fedcd4 | 
[V:3] z8 | 
[V:4] F2A2G4 | 
[V:5] z8 | 
[V:1] c8 | 
[V:2] c8 | 
[V:3] z8 | 
[V:4] C4c4 | 
[V:5] z8 | 
[V:1] G8 | 
[V:2] z4g4 | 
[V:3] z8 | 
[V:4] c4c4 | 
[V:5] C,4C,4 | 
[V:1] z8 | 
[V:2] g4g4 | 
[V:3] z8 | 
[V:4] G6G2 | 
[V:5] C,4G,,4- | 
[V:1] z8 | 
[V:2] d6d2 | 
[V:3] z8 | 
[V:4] G4B4 | 
[V:5] G,,2G,,2G,,4 | 
[V:1] z8 | 
[V:2] d8 | 
[V:3] z8 | 
[V:4] B6B2 | 
[V:5] z2G,2G,2G,2 | 
[V:1] z8 | 
[V:2] z8 | 
[V:3] A8 | 
[V:4] AGFEF2E2- | 
[V:5] F,3E,D,2C,2- | 
[V:1] z8 | 
[V:2] z4c4 | 
[V:3] G4F4 | 
[V:4] EDD4C2 | 
[V:5] C,B,,G,,2A,,4 | 
[V:1] z8 | 
[V:2] B2G2B4 | 
[V:3] G8 | 
[V:4] D2d3cde | 
[V:5] G,,4z2G,2 | 
[V:1] A8 | 
[V:2] A2F3GAB | 
[V:3] D8 | 
[V:4] f3edcd2 | 
[V:5] F,2D,2F,3E, | 
[V:1] G4F4 | 
[V:2] c2G2A4 | 
[V:3] z8 | 
[V:4] _e2c2d4- | 
[V:5] C,2_E,2D,4 | 
[V:1] G8 | 
[V:2] G8- | 
[V:3] G6A2 | 
[V:4] d2c2B4- | 
[V:5] G,,4z4 | 
[V:1] D8- | 
[V:2] G8 | 
[V:3] B8- | 
[V:4] B2A2G4 | 
[V:5] G,,6A,,2 | 
[V:1] D8- | 
[V:2] D6E2 | 
[V:3] B8- | 
[V:4] F4G4 | 
[V:5] B,,8- | 
[V:1] D8 ||  
[V:2] F8 ||  
[V:3] B8 ||  
[V:4] D8 ||  
[V:5] B,,8 ||  
[V:1]  [K:F] [K:clef=treble][M:2/1]z8 | 
[V:2]  [K:F] [K:clef=treble-8][M:2/1]c8 | 
[V:3]  [K:F] [K:clef=treble-8][M:2/1]z8 | 
[V:4]  [K:F] [K:clef=treble-8][M:2/1]z8 | 
[V:5]  [K:F] [K:clef=bass][M:2/1]z8 | 
[V:1] z8 | 
[V:2] c4c4 | 
[V:3] z8 | 
[V:4] z8 | 
[V:5] z8 | 
[V:1] z8 | 
[V:2] c3Bc2d2- | 
[V:3] z8 | 
[V:4] F8 | 
[V:5] z8 | 
[V:1] z8 | 
[V:2] d2cBA4 | 
[V:3] z8 | 
[V:4] F4F4 | 
[V:5] z8 | 
[V:1] z8 | 
[V:2] z4D4- | 
[V:3] z8 | 
[V:4] F3EF2G2- | 
[V:5] B,,8 | 
[V:1] z8 | 
[V:2] D4d4- | 
[V:3] z8 | 
[V:4] G2FED4 | 
[V:5] B,,4B,,4 | 
[V:1] z8 | 
[V:2] d4G4 | 
[V:3] z8 | 
[V:4] z2D4_E2- | 
[V:5] B,,3A,,B,,2C,2- | 
[V:1] z8 | 
[V:2] c4B3c | 
[V:3] z8 | 
[V:4] E2DC_E2D2- | 
[V:5] C,2B,,A,,G,,3A,, | 
[V:1] z8 | 
[V:2] d_ed4cB | 
[V:3] z8 | 
[V:4] DCDEF4- | 
[V:5] B,,3C,D,4 | 
[V:1] z8 | 
[V:2] A3GA4 | 
[V:3] z8 | 
[V:4] F4z4 | 
[V:5] z4D,4- | 
[V:1] z8 | 
[V:2] z4f4- | 
[V:3] z8 | 
[V:4] F8 | 
[V:5] D,4D,4 | 
[V:1] z8 | 
[V:2] f4f2f2- | 
[V:3] z8 | 
[V:4] F4F4 | 
[V:5] D,4D,3C, | 
[V:1] z8 | 
[V:2] f2B2_e4 | 
[V:3] z8 | 
[V:4] F2G4F_E | 
[V:5] D,2_E,4D,C, | 
[V:1] z8 | 
[V:2] d3ef2FG | 
[V:3] z8 | 
[V:4] G2F3GAB | 
[V:5] B,,3C,D,E,F,2- | 
[V:1] z8 | 
[V:2] ABc4GA | 
[V:3] z8 | 
[V:4] c3BGABc | 
[V:5] F,2C,D,E,F,G,2- | 
[V:1] z8 | 
[V:2] Bcd4cB | 
[V:3] z8 | 
[V:4] def4ed | 
[V:5] G,2F,2D,3E, | 
[V:1] z8 | 
[V:2] A4z4 | 
[V:3] z8 | 
[V:4] c4z4 | 
[V:5] F,8 | 
[V:1] z8 | 
[V:2] A8 | 
[V:3] z8 | 
[V:4] c8 | 
[V:5] z4F,4 | 
[V:1] z8 | 
[V:2] A4A4- | 
[V:3] z8 | 
[V:4] c4c4- | 
[V:5] F,8 | 
[V:1] z8 | 
[V:2] A4A3G | 
[V:3] z8 | 
[V:4] c4c4 | 
[V:5] F,4F,3E, | 
[V:1] z8 | 
[V:2] A2B4AG | 
[V:3] z8 | 
[V:4] d8 | 
[V:5] F,2G,4F,E, | 
[V:1] z8 | 
[V:2] B2A3GFE | 
[V:3] z8 | 
[V:4] d8 | 
[V:5] D,8 | 
[V:1] z8 | 
[V:2] D2d2c2A2 | 
[V:3] z8 | 
[V:4] z2D2E2F2 | 
[V:5] z2B,,2C,2D,2 | 
[V:1] z8 | 
[V:2] B4A3G | 
[V:3] z8 | 
[V:4] G2DEFGA2- | 
[V:5] G,,A,,B,,C,D,_E,D,2- | 
[V:1] z8 | 
[V:2] FED4C2 | 
[V:3] z8 | 
[V:4] ABG3^F^FE | 
[V:5] D,2B,,2A,,4 | 
[V:1] z8 | 
[V:2] D2d2e2f2 | 
[V:3] z8 | 
[V:4] G2B2c2d2 | 
[V:5] G,,4z4 | 
[V:1] z8 | 
[V:2] g2GABcde | 
[V:3] z8 | 
[V:4] GABcd_ed2- | 
[V:5] z8 | 
[V:1] z8 | 
[V:2] fdg3^f^fe | 
[V:3] z8 | 
[V:4] d2B2A4 | 
[V:5] z2B,,2C,2D,2 | 
[V:1] z8 | 
[V:2] g2defgf2- | 
[V:3] B8 | 
[V:4] G4z4 | 
[V:5] G,,A,,B,,C,D,_E,D,2- | 
[V:1] z8 | 
[V:2] f2d2c4 | 
[V:3] F8 | 
[V:4] A8 | 
[V:5] D,2B,,2A,,4 | 
[V:1] B8 | 
[V:2] B2G4FE | 
[V:3] G4G4 | 
[V:4] B6AG | 
[V:5] G,,8 | 
[V:1] F8 | 
[V:2] D8 | 
[V:3] d8 | 
[V:4] B4A4 | 
[V:5] z2D,2F,4 | 
[V:1] G4G4 | 
[V:2] C4G4- | 
[V:3] _e8 | 
[V:4] z2c2B2G2 | 
[V:5] _E,2C,2E,3D, | 
[V:1] d8 | 
[V:2] G4F4 | 
[V:3] d8 | 
[V:4] B4A4 | 
[V:5] B,,4D,4 | 
[V:1] _e8 | 
[V:2] c4z2c2 | 
[V:3] z8 | 
[V:4] z2A2G2_E2 | 
[V:5] C,2A,,2C,3B,, | 
[V:1] d8 | 
[V:2] B2G2B4 | 
[V:3] z8 | 
[V:4] G3FD3E | 
[V:5] G,,8 | 
[V:1] z8 | 
[V:2] A4z2f2- | 
[V:3] z8 | 
[V:4] F3GA4 | 
[V:5] z4D,4- | 
[V:1] z8 | 
[V:2] f2f2f4 | 
[V:3] z8 | 
[V:4] z2A4A2 | 
[V:5] D,2D,2D,4 | 
[V:1] z8 | 
[V:2] e4g4- | 
[V:3] z8 | 
[V:4] A4G4 | 
[V:5] C,4_E,4- | 
[V:1] z8 | 
[V:2] g4f2d2 | 
[V:3] z8 | 
[V:4] B8 | 
[V:5] E,4D,4 | 
[V:1] z8 | 
[V:2] f3ecAc2- | 
[V:3] z8 | 
[V:4] A4z2A2 | 
[V:5] z2D,2F,3E, | 
[V:1] z8 | 
[V:2] cdefg3f | 
[V:3] z8 | 
[V:4] c3BG2B2- | 
[V:5] C,3D,E,F,G,2- | 
[V:1] z8 | 
[V:2] d3cdef2- | 
[V:3] z4d4 | 
[V:4] B2A2B2F2 | 
[V:5] G,F,D,3C,D,E, | 
[V:1] z8 | 
[V:2] f2d2e2g2 | 
[V:3] c2B2c4 | 
[V:4] A2B2G4 | 
[V:5] F,2G,2E,4 | 
[V:1] z4d4 | 
[V:2] f2d3cde | 
[V:3] d8 | 
[V:4] A8 | 
[V:5] D,8 | 
[V:1] c2B2c4 | 
[V:2] f2g2e4 | 
[V:3] z8 | 
[V:4] z4A4 | 
[V:5] z8 | 
[V:1] d8 | 
[V:2] d8 | 
[V:3] z8 | 
[V:4] F3EF2G2- | 
[V:5] D,4B,,4 | 
[V:1] z8 | 
[V:2] z8 | 
[V:3] z8 | 
[V:4] G2A3GFE | 
[V:5] C,3B,,C,2D,2- | 
[V:1] z8 | 
[V:2] d4B4 | 
[V:3] z8 | 
[V:4] D2d3cBA | 
[V:5] D,C,B,,A,,G,,2G,2 | 
[V:1] z8 | 
[V:2] c3Bc2d2- | 
[V:3] z8 | 
[V:4] G2A4F2 | 
[V:5] E,2F,3E,D,C, | 
[V:1] z8 | 
[V:2] dcBAG4 | 
[V:3] z8 | 
[V:4] B4z2d2- | 
[V:5] B,,4B,4- | 
[V:1] z8 | 
[V:2] z4z2G2- | 
[V:3] z8 | 
[V:4] d2d2d4 | 
[V:5] B,2A,G,G,4 | 
[V:1] z8 | 
[V:2] G2G2G4 | 
[V:3] z8 | 
[V:4] e6de | 
[V:5] z2C,4C,2 | 
[V:1] z8 | 
[V:2] A6GA | 
[V:3] z8 | 
[V:4] c2A2A4 | 
[V:5] C,4D,4- | 
[V:1] z8 | 
[V:2] F2D2D4 | 
[V:3] z8 | 
[V:4] d6cd | 
[V:5] D,2C,D,B,,2G,,2 | 
[V:1] z8 | 
[V:2] G4z4 | 
[V:3] z4d4 | 
[V:4] B2d3cB2 | 
[V:5] G,,3A,,B,,C,D,E, | 
[V:1] z8 | 
[V:2] z8 | 
[V:3] c2B2c4 | 
[V:4] A2G2A4 | 
[V:5] F,2G,4^F,2 | 
[V:1] z4d4 | 
[V:2] z2d3cB2 | 
[V:3] G8 | 
[V:4] B2GABcde | 
[V:5] G,4G,,4 | 
[V:1] c2B2c4 | 
[V:2] A2G2A2G2- | 
[V:3] z8 | 
[V:4] f2g2c3d | 
[V:5] z4C,4 | 
[V:1] G8- | 
[V:2] G4E2C2 | 
[V:3] c8- | 
[V:4] e8- | 
[V:5] C,8- | 
[V:1] G8 ||  
[V:2] G8 ||  
[V:3] c8 ||  
[V:4] e8 ||  
[V:5] C,8 ||  
[V:1]  [K:F] [K:clef=treble][M:2/1]z8 | 
[V:2]  [K:F] [K:clef=treble-8][M:2/1]z8 | 
[V:3]  [K:F] [K:clef=treble-8][M:2/1]z8 | 
[V:4]  [K:F] [K:clef=treble-8][M:2/1]c4c4 | 
[V:5]  [K:F] [K:clef=bass][M:2/1]z4C,4 | 
[V:1] z8 | 
[V:2] G4G4 | 
[V:3] z8 | 
[V:4] G3ABcd2- | 
[V:5] C,4G,,3A,, | 
[V:1] z8 | 
[V:2] D3EFGA2- | 
[V:3] z8 | 
[V:4] d2f3ee2- | 
[V:5] B,,C,D,4C,2 | 
[V:1] z8 | 
[V:2] A2F2G2G2 | 
[V:3] z8 | 
[V:4] edd4^c2 | 
[V:5] D,2F,2E,4 | 
[V:1] z8 | 
[V:2] A4G3A | 
[V:3] z8 | 
[V:4] d2f2g3f | 
[V:5] D,4z4 | 
[V:1] z8 | 
[V:2] Bcd2G2A2 | 
[V:3] z8 | 
[V:4] d2f2e4 | 
[V:5] z2B,,2C,3B,, | 
[V:1] z8 | 
[V:2] B2G3^F^FE | 
[V:3] z8 | 
[V:4] d4z4 | 
[V:5] G,,2B,,2A,,4 | 
[V:1] z8 | 
[V:2] G2d2c2A2 | 
[V:3] z8 | 
[V:4] z2B2c3B | 
[V:5] G,,4z2F,2 | 
[V:1] z8 | 
[V:2] B2d3cA2 | 
[V:3] B4F4 | 
[V:4] G2B2A4 | 
[V:5] G,3F,D,2F,2 | 
[V:1] B4F4 | 
[V:2] G2B3AF2 | 
[V:3] G2G2d4 | 
[V:4] G4z2A2 | 
[V:5] _E,4D,4 | 
[V:1] G2G2d4 | 
[V:2] _E2G3FDF | 
[V:3] _e4d4 | 
[V:4] c2GABcd2 | 
[V:5] z4z2B,,2 | 
[V:1] _e4d4 | 
[V:2] _E2G3FD2 | 
[V:3] z4d4 | 
[V:4] c2GABcdB | 
[V:5] C,3B,,G,,2B,,2 | 
[V:1] z4d4 | 
[V:2] E2F2G2B2 | 
[V:3] c4B4 | 
[V:4] c2A2z2d2 | 
[V:5] A,,4G,,4 | 
[V:1] c4B4 | 
[V:2] A4G4 | 
[V:3] c4d4 | 
[V:4] e2f2g3f | 
[V:5] z4z2G,2 | 
[V:1] c4d4 | 
[V:2] z6d2 | 
[V:3] z4d4 | 
[V:4] e4d4 | 
[V:5] A,2C2B,G,B,2 | 
[V:1] z4d4 | 
[V:2] e2f2g3f | 
[V:3] c4B4 | 
[V:4] z4z2d2 | 
[V:5] A,4G,4 | 
[V:1] c4B4 | 
[V:2] edecd4 | 
[V:3] c4G4 | 
[V:4] e2g3fd2 | 
[V:5] z8 | 
[V:1] c4G4 | 
[V:2] c2e4e2 | 
[V:3] z8 | 
[V:4] e2c4c2 | 
[V:5] C,4C,2C,2- | 
[V:1] z8 | 
[V:2] e4d3c | 
[V:3] z8 | 
[V:4] c4B4 | 
[V:5] C,D,E,F,G,2D,2- | 
[V:1] z8 | 
[V:2] def3ed2 | 
[V:3] z8 | 
[V:4] A3GABA2- | 
[V:5] D,C,D,E,F,G,F,2- | 
[V:1] z8 | 
[V:2] cBB4A2 | 
[V:3] z4c2c2 | 
[V:4] AGF4E2 | 
[V:5] F,2D,2C,4 | 
[V:1] z4c2c2 | 
[V:2] B4F4 | 
[V:3] d4c4 | 
[V:4] F2B4A2 | 
[V:5] B,,4z2F,2 | 
[V:1] d4c4 | 
[V:2] z2B3AAG | 
[V:3] B4z4 | 
[V:4] B3AF2c2 | 
[V:5] D,2B,,2F,4 | 
[V:1] B4z4 | 
[V:2] B4F4 | 
[V:3] z2B2c3B | 
[V:4] d3cA4 | 
[V:5] B,,4z2F,2 | 
[V:1] z2B2c3B | 
[V:2] z4z2c2 | 
[V:3] A2G2F4 | 
[V:4] z4z2F2 | 
[V:5] F,2G,2A,3G, | 
[V:1] A2G2F4 | 
[V:2] d2e2f3e | 
[V:3] z2c2d3c | 
[V:4] F2G2AFf2- | 
[V:5] F,2E,2D,4 | 
[V:1] z2c2d3c | 
[V:2] d2c2BGd2- | 
[V:3] B2A2G4 | 
[V:4] fdefg2G2- | 
[V:5] z2A,2B,3A, | 
[V:1] B2A2G4 | 
[V:2] defeg4 | 
[V:3] z2d2_e2c2 | 
[V:4] G2A2B2G2 | 
[V:5] G,2F,2_E,4 | 
[V:1] z2d2_e2c2 | 
[V:2] (3f2d2f2(3_e2c2_e2 | 
[V:3] d4c4 | 
[V:4] B2A2z2A2 | 
[V:5] D,4z2A,,2 | 
[V:1] d4c4 | 
[V:2] d4z2c2 | 
[V:3] z2B2c2A2 | 
[V:4] F2G3^F^FE | 
[V:5] B,,4A,,4 | 
[V:1] z2B2c2A2 | 
[V:2] (3d2B2d2(3c2A2c2 | 
[V:3] B4A4 | 
[V:4] G4z4 | 
[V:5] G,,2G,2A,2F,2 | 
[V:1] B4A4 | 
[V:2] BGg2e2f2 | 
[V:3] z6A2 | 
[V:4] z2G2A2F2 | 
[V:5] G,4z4 | 
[V:1] z6A2 | 
[V:2] d2G4F2 | 
[V:3] B3cB2A2- | 
[V:4] G2d3ef2 | 
[V:5] G,,3A,,B,,C,D,2 | 
[V:1] B3cB2A2- | 
[V:2] G2D2d4 | 
[V:3] AGG4^F2 | 
[V:4] B2d3ef2 | 
[V:5] G,,3A,,B,,C,D,2 | 
[V:1] AGG4^F2 | 
[V:2] B2c2A4 | 
[V:3] G4z2A2 | 
[V:4] _e4d4 | 
[V:5] _E,2C,2D,4 | 
[V:1] G4z2A2 | 
[V:2] G2d3ef2 | 
[V:3] B3cB2A2- | 
[V:4] z2G4F2 | 
[V:5] G,,3A,,B,,C,D,2 | 
[V:1] B3cB2A2- | 
[V:2] B2d3ef2 | 
[V:3] AGG4^F2 | 
[V:4] G2D2d4 | 
[V:5] G,,3A,,B,,C,D,2 | 
[V:1] AGG4^F2 | 
[V:2] _e4d4 | 
[V:3] G4z4 | 
[V:4] B2c2A4 | 
[V:5] _E,2C,2D,4 | 
[V:1] G4z4 | 
[V:2] z2B2c2_e2- | 
[V:3] G4G4 | 
[V:4] G4C2G2 | 
[V:5] G,,2G,F,_E,D,C,2- | 
[V:1] G4G4 | 
[V:2] e2d2c4 | 
[V:3] G8 | 
[V:4] C2D2_E4 | 
[V:5] C,2B,,2C,4 | 
[V:1] G8 | 
[V:2] B8- | 
[V:3] G8- | 
[V:4] D8- | 
[V:5] G,,8- | 
[V:1] G8 |]  
[V:2] B8 |]  
[V:3] G8 |]  
[V:4] D8 |]  
[V:5] G,,8 |]  



